svg/UnitedNations-Flags/flag-cg.svg

<?xml version="1.0" encoding="UTF-8" standalone="no"?>
<svg height="256" id="svg3949" inkscape:output_extension="org.inkscape.output.svg.inkscape" inkscape:version="0.46" sodipodi:docname="Flag_of_the_Democratic_Republic_of_the_Congo.svg" sodipodi:version="0.32" version="1.0" width="256" xmlns="http://www.w3.org/2000/svg" xmlns:cc="http://creativecommons.org/ns#" xmlns:dc="http://purl.org/dc/elements/1.1/" xmlns:inkscape="http://www.inkscape.org/namespaces/inkscape" xmlns:rdf="http://www.w3.org/1999/02/22-rdf-syntax-ns#" xmlns:sodipodi="http://sodipodi.sourceforge.net/DTD/sodipodi-0.dtd" xmlns:svg="http://www.w3.org/2000/svg">
  <metadata>
    <rdf:RDF xmlns:cc="http://web.resource.org/cc/" xmlns:dc="http://purl.org/dc/elements/1.1/" xmlns:rdf="http://www.w3.org/1999/02/22-rdf-syntax-ns#">
      <cc:Work rdf:about="">
        <dc:title></dc:title>
        <dc:description></dc:description>
        <dc:subject>
          <rdf:Bag>
            <rdf:li>unsorted</rdf:li>
          </rdf:Bag>
        </dc:subject>
        <dc:publisher>
          <cc:Agent rdf:about="http://www.openclipart.org/">
            <dc:title>Open Clip Art Library, Source: Wikimedia Commons, Source: Wikimedia Commons, Source: Wikimedia Commons, Source: Wikimedia Commons</dc:title>
          </cc:Agent>
        </dc:publisher>
        <dc:creator>
          <cc:Agent>
            <dc:title></dc:title>
          </cc:Agent>
        </dc:creator>
        <dc:rights>
          <cc:Agent>
            <dc:title></dc:title>
          </cc:Agent>
        </dc:rights>
        <dc:date></dc:date>
        <dc:format>image/svg+xml</dc:format>
        <dc:type rdf:resource="http://purl.org/dc/dcmitype/StillImage"/>
        <cc:license rdf:resource="http://en.wikipedia.org/wiki/Public_domain"/>
        <dc:language>en</dc:language>
      </cc:Work>
    </rdf:RDF>
  </metadata>
  <defs id="defs3960">
    <inkscape:perspective id="perspective3964" inkscape:persp3d-origin="400 : 200 : 1" inkscape:vp_x="0 : 300 : 1" inkscape:vp_y="0 : 1000 : 0" inkscape:vp_z="800 : 300 : 1" sodipodi:type="inkscape:persp3d"/>
  </defs>
  <sodipodi:namedview bordercolor="#666666" borderopacity="1.0" gridtolerance="10.0" guidetolerance="10.0" id="base" inkscape:current-layer="svg3949" inkscape:cx="400" inkscape:cy="300" inkscape:pageopacity="0.0" inkscape:pageshadow="2" inkscape:window-height="754" inkscape:window-width="877" inkscape:window-x="0" inkscape:window-y="170" inkscape:zoom="0.69875" objecttolerance="10.0" pagecolor="#ffffff" showgrid="false"/>
  <rect height="192" id="rect3951" style="fill:#007fff" width="255.99998" x="0" y="32"/>
  <path d="M 240,32.00001 L 0,176.00001 L 0,224 L 0.010666667,224 L 16.000001,224 L 256,80.000003 L 256,32.00001 L 240,32.00001 z" id="path3953" style="fill:#f7d618"/>
  <path d="M 256,32.00001 L 0,185.60001 L 0,223.99981 L 0.010750573,223.99981 L 0.021501146,224 L 256,70.400002 L 256,32.00001 z" id="path3955" style="fill:#ce1021"/>
  <path d="M 46.079996,45.184011 L 54.239227,70.264422 L 80.639992,70.265422 L 59.28191,85.766973 L 67.439246,110.848 L 46.079996,95.348073 L 24.720741,110.848 L 32.878077,85.766973 L 11.519999,70.265422 L 37.92076,70.264422 L 46.079996,45.184011 z" id="path3957" style="fill:#f7d618"/>
</svg>

<svg xmlns="http://www.w3.org/2000/svg" viewBox="0 0 256 256"><path fill="#007fff" d="m0 32h256v192h-256z"/><path d="m240 32l-240 144v48h.011 15.989l240-144v-48h-16" fill="#f7d618"/><path d="m256 32l-256 153.6v38.4h.011.011l255.98-153.6v-38.4" fill="#ce1021"/><path d="m46.08 45.18l8.159 25.08 26.401.0001-21.358 15.502 8.157 25.08-21.359-15.5-21.359 15.5 8.157-25.08-21.358-15.502 26.401-.0001 8.159-25.08" fill="#f7d618"/></svg>
